src/education.svg

<svg xmlns="http://www.w3.org/2000/svg" viewBox="0 0 20 20"><path d="M3.33 8L10 12l10-6-10-6L0 6h10v2H3.33zM0 8v8l2-2.22V9.2L0 8zm10 12l-5-3-2-1.2v-6l7 4.2 7-4.2v6L10 20z"/></svg>

<?xml version="1.0" encoding="UTF-8" standalone="no"?>
<svg width="20px" height="20px" viewBox="0 0 20 20" version="1.1" xmlns="http://www.w3.org/2000/svg" xmlns:xlink="http://www.w3.org/1999/xlink">
    <!-- Generator: Sketch 3.7.2 (28276) - http://www.bohemiancoding.com/sketch -->
    <title>education</title>
    <desc>Created with Sketch.</desc>
    <defs></defs>
    <g id="Page-1" stroke="none" stroke-width="1" fill="none" fill-rule="evenodd">
        <g id="education" fill="#000000">
            <path d="M3.33333333,8 L10,12 L20,6 L10,0 L-5.55111512e-16,6 L10,6 L10,6.5 L10,8 L3.33333333,8 L3.33333333,8 Z M1.33226763e-15,8 L1.33226763e-15,16 L2,13.7777778 L2,9.2 L2,9.2 L1.33226763e-15,8 L1.11022302e-16,8 L1.33226763e-15,8 Z M10,20 L5,16.9999998 L3,15.8 L3,9.8 L10,14 L17,9.8 L17,15.8 L10,20 L10,20 Z" id="Combined-Shape"></path>
        </g>
    </g>
</svg>
